src/assets/Imgs/sns/nice.svg

<svg fill="none" height="195" viewBox="0 0 195 195" width="195" xmlns="http://www.w3.org/2000/svg" xmlns:xlink="http://www.w3.org/1999/xlink"><filter id="a" color-interpolation-filters="sRGB" filterUnits="userSpaceOnUse" height="193.33" width="193.331" x=".792969" y=".808594"><feFlood flood-opacity="0" result="BackgroundImageFix"/><feColorMatrix in="SourceAlpha" result="hardAlpha" type="matrix" values="0 0 0 0 0 0 0 0 0 0 0 0 0 0 0 0 0 0 127 0"/><feOffset dx="10" dy="10"/><feGaussianBlur stdDeviation="5"/><feComposite in2="hardAlpha" operator="out"/><feColorMatrix type="matrix" values="0 0 0 0 0.965202 0 0 0 0 0.959538 0 0 0 0 1 0 0 0 0.36 0"/><feBlend in2="BackgroundImageFix" mode="normal" result="effect1_dropShadow_743_7462"/><feBlend in="SourceGraphic" in2="effect1_dropShadow_743_7462" mode="normal" result="shape"/></filter><linearGradient id="b" gradientUnits="userSpaceOnUse" x1="77.2829" x2="111.845" y1="93.6481" y2="174.139"><stop offset="0" stop-color="#fff"/><stop offset="1" stop-color="#fbecff"/></linearGradient><linearGradient id="c" gradientUnits="userSpaceOnUse" x1="58.353" x2="58.353" y1="71.0059" y2="115.204"><stop offset="0" stop-color="#c9aaff"/><stop offset="1" stop-color="#c9aaff" stop-opacity="0"/></linearGradient><linearGradient id="d" gradientUnits="userSpaceOnUse" x1="95.4952" x2="95.4952" y1="61.6406" y2="125.154"><stop offset="0" stop-color="#5200ff"/><stop offset="1" stop-color="#5200ff" stop-opacity="0"/></linearGradient><linearGradient id="e" gradientUnits="userSpaceOnUse" x1="82.1379" x2="82.1379" y1="34.5586" y2="41.7104"><stop offset="0" stop-color="#b592ff"/><stop offset="1" stop-color="#f2ecff"/></linearGradient><linearGradient id="f" gradientUnits="userSpaceOnUse" x1="129.968" x2="129.968" y1="60.6914" y2="71.7603"><stop offset="0" stop-color="#b592ff"/><stop offset="1" stop-color="#e7dcff" stop-opacity=".42"/></linearGradient><linearGradient id="g" gradientUnits="userSpaceOnUse" x1="113.115" x2="113.115" y1="28.3105" y2="50.947"><stop offset="0" stop-color="#5200ff"/><stop offset="1" stop-color="#dac8ff" stop-opacity=".44"/></linearGradient><g filter="url(#a)"><circle cx="87.4583" cy="87.474" fill="url(#b)" r="86.6654"/></g><path clip-rule="evenodd" d="m62.7447 71.1338c-3.1202-.6632-6.1918 1.3165-6.855 4.4367l-6.8453 32.2035c-.6614 3.112 1.3377 6.179 4.4578 6.842l2.423.515c1.7867.38 3.541-.759 3.919-2.537l7.8715-37.0331c.3779-1.778-.7613-3.5323-2.548-3.9121z" fill="url(#c)" fill-rule="evenodd"/><path clip-rule="evenodd" d="m91.5734 58.5285-6.3718 12.492c-1.3175 2.5985-4.2352 3.9824-7.0939 3.3747l-1.6212-.3446c-1.7867-.3798-3.541.7595-3.9189 2.5375l-7.8734 37.0409c-.1797.846-.0139 1.738.4665 2.477.4735.729 1.2292 1.245 2.0834 1.427l34.8279 7.403c4.297.913 8.678-1.098 10.779-4.942l12.324-22.6225c1.483-2.7364 1.589-6.0205.278-8.8499-1.31-2.8382-3.889-4.8895-6.948-5.5397l-12.891-2.74c-1.786-.3798-2.928-2.1254-2.55-3.9034l3.079-14.4854c.758-3.5646-1.522-7.0646-5.105-7.826-3.8083-.8096-7.6979 1.0327-9.4646 4.5014z" fill="url(#d)" fill-rule="evenodd"/><path d="m82.1379 34.5586.5057 3.0702 3.0702.5057-3.0702.5057-.5057 3.0702-.5057-3.0702-3.0702-.5057 3.0702-.5057z" fill="url(#e)"/><path d="m129.968 60.6914.782 4.7517 4.752.7827-4.752.7827-.782 4.7518-.783-4.7518-4.752-.7827 4.752-.7827z" fill="url(#f)"/><path d="m113.115 28.3105 1.601 9.7176 9.717 1.6007-9.717 1.6006-1.601 9.7176-1.601-9.7176-9.717-1.6006 9.717-1.6007z" fill="url(#g)"/></svg>

<svg width="195" height="195" viewBox="0 0 195 195" fill="none" xmlns="http://www.w3.org/2000/svg">
<g id="Group 39781">
<g id="Ellipse 425" filter="url(#filter0_d_743_7462)">
<circle cx="87.4583" cy="87.474" r="86.6654" fill="url(#paint0_linear_743_7462)"/>
</g>
<g id="Group">
<path id="&#232;&#183;&#175;&#229;&#190;&#132;" fill-rule="evenodd" clip-rule="evenodd" d="M62.7447 71.1338C59.6245 70.4706 56.5529 72.4503 55.8897 75.5705L49.0444 107.774C48.383 110.886 50.3821 113.953 53.5022 114.616L55.9252 115.131C57.7119 115.511 59.4662 114.372 59.8442 112.594L67.7157 75.5609C68.0936 73.7829 66.9544 72.0286 65.1677 71.6488L62.7447 71.1338Z" fill="url(#paint1_linear_743_7462)"/>
<path id="&#232;&#183;&#175;&#229;&#190;&#132;_2" fill-rule="evenodd" clip-rule="evenodd" d="M91.5734 58.5285L85.2016 71.0205C83.8841 73.619 80.9664 75.0029 78.1077 74.3952L76.4865 74.0506C74.6998 73.6708 72.9455 74.8101 72.5676 76.5881L64.6942 113.629C64.5145 114.475 64.6803 115.367 65.1607 116.106C65.6342 116.835 66.3899 117.351 67.2441 117.533L102.072 124.936C106.369 125.849 110.75 123.838 112.851 119.994L125.175 97.3715C126.658 94.6351 126.764 91.351 125.453 88.5216C124.143 85.6834 121.564 83.6321 118.505 82.9819L105.614 80.2419C103.828 79.8621 102.686 78.1165 103.064 76.3385L106.143 61.8531C106.901 58.2885 104.621 54.7885 101.038 54.0271C97.2297 53.2175 93.3401 55.0598 91.5734 58.5285Z" fill="url(#paint2_linear_743_7462)"/>
</g>
<path id="Star 1" d="M82.1379 34.5586L82.6436 37.6288L85.7138 38.1345L82.6436 38.6402L82.1379 41.7104L81.6322 38.6402L78.562 38.1345L81.6322 37.6288L82.1379 34.5586Z" fill="url(#paint3_linear_743_7462)"/>
<path id="Star 3" d="M129.968 60.6914L130.75 65.4431L135.502 66.2258L130.75 67.0085L129.968 71.7603L129.185 67.0085L124.433 66.2258L129.185 65.4431L129.968 60.6914Z" fill="url(#paint4_linear_743_7462)"/>
<path id="Star 2" d="M113.115 28.3105L114.716 38.0281L124.433 39.6288L114.716 41.2294L113.115 50.947L111.514 41.2294L101.797 39.6288L111.514 38.0281L113.115 28.3105Z" fill="url(#paint5_linear_743_7462)"/>
</g>
<defs>
<filter id="filter0_d_743_7462" x="0.792969" y="0.808594" width="193.331" height="193.33" filterUnits="userSpaceOnUse" color-interpolation-filters="sRGB">
<feFlood flood-opacity="0" result="BackgroundImageFix"/>
<feColorMatrix in="SourceAlpha" type="matrix" values="0 0 0 0 0 0 0 0 0 0 0 0 0 0 0 0 0 0 127 0" result="hardAlpha"/>
<feOffset dx="10" dy="10"/>
<feGaussianBlur stdDeviation="5"/>
<feComposite in2="hardAlpha" operator="out"/>
<feColorMatrix type="matrix" values="0 0 0 0 0.965202 0 0 0 0 0.959538 0 0 0 0 1 0 0 0 0.36 0"/>
<feBlend mode="normal" in2="BackgroundImageFix" result="effect1_dropShadow_743_7462"/>
<feBlend mode="normal" in="SourceGraphic" in2="effect1_dropShadow_743_7462" result="shape"/>
</filter>
<linearGradient id="paint0_linear_743_7462" x1="77.2829" y1="93.6481" x2="111.845" y2="174.139" gradientUnits="userSpaceOnUse">
<stop stop-color="white"/>
<stop offset="1" stop-color="#FBECFF"/>
</linearGradient>
<linearGradient id="paint1_linear_743_7462" x1="58.353" y1="71.0059" x2="58.353" y2="115.204" gradientUnits="userSpaceOnUse">
<stop stop-color="#C9AAFF"/>
<stop offset="1" stop-color="#C9AAFF" stop-opacity="0"/>
</linearGradient>
<linearGradient id="paint2_linear_743_7462" x1="95.4952" y1="61.6406" x2="95.4952" y2="125.154" gradientUnits="userSpaceOnUse">
<stop stop-color="#5200FF"/>
<stop offset="1" stop-color="#5200FF" stop-opacity="0"/>
</linearGradient>
<linearGradient id="paint3_linear_743_7462" x1="82.1379" y1="34.5586" x2="82.1379" y2="41.7104" gradientUnits="userSpaceOnUse">
<stop stop-color="#B592FF"/>
<stop offset="1" stop-color="#F2ECFF"/>
</linearGradient>
<linearGradient id="paint4_linear_743_7462" x1="129.968" y1="60.6914" x2="129.968" y2="71.7603" gradientUnits="userSpaceOnUse">
<stop stop-color="#B592FF"/>
<stop offset="1" stop-color="#E7DCFF" stop-opacity="0.42"/>
</linearGradient>
<linearGradient id="paint5_linear_743_7462" x1="113.115" y1="28.3105" x2="113.115" y2="50.947" gradientUnits="userSpaceOnUse">
<stop stop-color="#5200FF"/>
<stop offset="1" stop-color="#DAC8FF" stop-opacity="0.44"/>
</linearGradient>
</defs>
</svg>
